svg/24/logo-microsoft-todo.svg

<svg width="24" height="24" viewBox="0 0 24 24" fill="currentColor" xmlns="http://www.w3.org/2000/svg"><path d="M21.7559 7.27344C21.9186 7.44922 22 7.64453 22 7.85938C22 8.08724 21.9186 8.28255 21.7559 8.44531L10.5156 19.6855C10.4375 19.7702 10.3496 19.832 10.252 19.8711C10.1543 19.9102 10.0469 19.9297 9.92969 19.9297C9.70182 19.9297 9.50651 19.8483 9.34375 19.6855L3.13281 13.4746C3.04818 13.3965 2.98633 13.3086 2.94727 13.2109C2.9082 13.1133 2.88867 13.0059 2.88867 12.8887C2.88867 12.6608 2.97005 12.4655 3.13281 12.3027L6.0918 9.33398C6.26758 9.17122 6.46289 9.08984 6.67773 9.08984C6.9056 9.08984 7.10091 9.17122 7.26367 9.33398L9.92969 12L17.6152 4.31445C17.6999 4.22982 17.791 4.16797 17.8887 4.12891C17.9863 4.08984 18.0905 4.07031 18.2012 4.07031C18.3118 4.07031 18.416 4.08984 18.5137 4.12891C18.6113 4.16797 18.7057 4.22982 18.7969 4.31445L21.7559 7.27344ZM4.31445 12.8887L6.67773 15.252L9.05078 12.8887L6.67773 10.5156L4.31445 12.8887ZM9.92969 18.5039L20.5742 7.85938L18.2012 5.49609L7.56641 16.1406L7.63477 16.209L9.92969 18.5039Z"/></svg>

<svg xmlns="http://www.w3.org/2000/svg" width="24" height="24" fill="currentColor" viewBox="0 0 24 24">
  <path d="M21.756 7.273A.843.843 0 0 1 22 7.86a.8.8 0 0 1-.244.586l-11.24 11.24a.723.723 0 0 1-.264.186.86.86 0 0 1-.322.059.799.799 0 0 1-.586-.244l-6.211-6.211a.723.723 0 0 1-.186-.264.86.86 0 0 1-.058-.322.8.8 0 0 1 .244-.586l2.959-2.969a.843.843 0 0 1 .586-.244.8.8 0 0 1 .586.244L9.93 12l7.685-7.686a.816.816 0 0 1 .274-.185.833.833 0 0 1 .312-.059.834.834 0 0 1 .596.244l2.959 2.96ZM4.314 12.89l2.364 2.363 2.373-2.363-2.373-2.373-2.364 2.373Zm5.616 5.615L20.574 7.859l-2.373-2.363L7.566 16.141l.069.068 2.295 2.295Z"/>
</svg>
